X: 354
T: Zhok mare (Big Zhok)
R: zhok
O:
Q: 1/4=50
B: German Goldenshteyn "Shpilt klezmorimlach klingen zoln di gesalach" New York 2003 v.3 #54
Z: 2013 John Chambers <jc:trillian.mit.edu>
M: 2/4
L: 1/16
K: C
|: e2z2c2 G2z2c2 | (d3efd) (e3cgf) | e2z2c2 G2z2c2 |[1 d3efd c3(Gcd) :|[2 d3efd c2z Gcd |
|: e3gfe ~d3cBc | d3efd e3cgf | e3gfe ~d3cBc |[1 d3efd c2z Gcd :|[2 d3efd c4B2 |
|: A2"^_"a2"^_"a2 "^_"a2"^_"a2"^_"a2 | g3fed c3BA2 | B3cde f2e4 |[1 ~^d3cBc B3Ae2 :|[2 ~^d3cBc A4z2 |]
